X: 10
T: The Frost Is All Over
R: jig
M: 6/8
L: 1/8
K: Dmaj
A|:dgf edc|dAF BGE|DFA {d}BA^G|Agf ecA|dgf edc|dAF BGE|DFA {d}BA^G|1 ABc d2(A:|2 ABc dge|||:fdf {b}afd|{ga}gfg bag|fdf {b}afd|{g}fe^d efg|fdf {b}afd|~g3 bag|fga efg|1fdc dge:|2fdc def||


Tune 448	Setting 27118

